Numix-White/48/apps/mail_generic.svg

<?xml version="1.0" encoding="UTF-8" standalone="no"?>
<svg
   xmlns:dc="http://purl.org/dc/elements/1.1/"
   xmlns:cc="http://creativecommons.org/ns#"
   xmlns:rdf="http://www.w3.org/1999/02/22-rdf-syntax-ns#"
   xmlns:svg="http://www.w3.org/2000/svg"
   xmlns="http://www.w3.org/2000/svg"
   xmlns:sodipodi="http://sodipodi.sourceforge.net/DTD/sodipodi-0.dtd"
   xmlns:inkscape="http://www.inkscape.org/namespaces/inkscape"
   viewBox="0 0 48 48"
   id="svg2"
   version="1.1"
   inkscape:version="0.91 r13725"
   sodipodi:docname="x-office-mail.svg">
  <metadata
     id="metadata55">
    <rdf:RDF>
      <cc:Work
         rdf:about="">
        <dc:format>image/svg+xml</dc:format>
        <dc:type
           rdf:resource="http://purl.org/dc/dcmitype/StillImage" />
      </cc:Work>
    </rdf:RDF>
  </metadata>
  <sodipodi:namedview
     pagecolor="#ffffff"
     bordercolor="#666666"
     borderopacity="1"
     objecttolerance="10"
     gridtolerance="10"
     guidetolerance="10"
     inkscape:pageopacity="0"
     inkscape:pageshadow="2"
     inkscape:window-width="1863"
     inkscape:window-height="1021"
     id="namedview53"
     showgrid="false"
     inkscape:zoom="4.9166667"
     inkscape:cx="24"
     inkscape:cy="24"
     inkscape:window-x="57"
     inkscape:window-y="31"
     inkscape:window-maximized="1"
     inkscape:current-layer="svg2" />
  <defs
     id="defs4">
    <linearGradient
       id="linearGradient3764"
       x1="1"
       x2="47"
       gradientUnits="userSpaceOnUse"
       gradientTransform="matrix(0,-1,1,0,-1.5e-6,47.999998)">
      <stop
         style="stop-color:#3d3d3d;stop-opacity:1"
         id="stop7" />
      <stop
         offset="1"
         style="stop-color:#474747;stop-opacity:1"
         id="stop9" />
    </linearGradient>
  </defs>
  <g
     id="g11">
    <path
       d="m 36.31 5 c 5.859 4.062 9.688 10.831 9.688 18.5 c 0 12.426 -10.07 22.5 -22.5 22.5 c -7.669 0 -14.438 -3.828 -18.5 -9.688 c 1.037 1.822 2.306 3.499 3.781 4.969 c 4.085 3.712 9.514 5.969 15.469 5.969 c 12.703 0 23 -10.298 23 -23 c 0 -5.954 -2.256 -11.384 -5.969 -15.469 c -1.469 -1.475 -3.147 -2.744 -4.969 -3.781 z m 4.969 3.781 c 3.854 4.113 6.219 9.637 6.219 15.719 c 0 12.703 -10.297 23 -23 23 c -6.081 0 -11.606 -2.364 -15.719 -6.219 c 4.16 4.144 9.883 6.719 16.219 6.719 c 12.703 0 23 -10.298 23 -23 c 0 -6.335 -2.575 -12.06 -6.719 -16.219 z"
       style="opacity:0.05"
       id="path13" />
    <path
       d="m 41.28 8.781 c 3.712 4.085 5.969 9.514 5.969 15.469 c 0 12.703 -10.297 23 -23 23 c -5.954 0 -11.384 -2.256 -15.469 -5.969 c 4.113 3.854 9.637 6.219 15.719 6.219 c 12.703 0 23 -10.298 23 -23 c 0 -6.081 -2.364 -11.606 -6.219 -15.719 z"
       style="opacity:0.1"
       id="path15" />
    <path
       d="m 31.25 2.375 c 8.615 3.154 14.75 11.417 14.75 21.13 c 0 12.426 -10.07 22.5 -22.5 22.5 c -9.708 0 -17.971 -6.135 -21.12 -14.75 a 23 23 0 0 0 44.875 -7 a 23 23 0 0 0 -16 -21.875 z"
       style="opacity:0.2"
       id="path17" />
  </g>
  <g
     id="g19"
     style="fill:#e6e6e6;fill-opacity:1">
    <path
       d="m 24 1 c 12.703 0 23 10.297 23 23 c 0 12.703 -10.297 23 -23 23 -12.703 0 -23 -10.297 -23 -23 0 -12.703 10.297 -23 23 -23 z"
       style="fill:#e6e6e6;fill-opacity:1"
       id="path21" />
  </g>
  <g
     id="g23"
     style="stroke:#000000;stroke-opacity:0.1882353;stroke-width:0.4;stroke-miterlimit:4;stroke-dasharray:none">
    <g
       id="g25"
       style="stroke:#000000;stroke-opacity:0.1882353;stroke-width:0.4;stroke-miterlimit:4;stroke-dasharray:none">
      <g
         transform="translate(1,1)"
         id="g27"
         style="stroke:#000000;stroke-opacity:0.1882353;stroke-width:0.4;stroke-miterlimit:4;stroke-dasharray:none">
        <g
           style="opacity:0.1;stroke:#000000;stroke-opacity:0.1882353;stroke-width:0.4;stroke-miterlimit:4;stroke-dasharray:none"
           id="g29">
          <!-- color: #474747 -->
          <g
             id="g31"
             style="stroke:#000000;stroke-opacity:0.1882353;stroke-width:0.4;stroke-miterlimit:4;stroke-dasharray:none">
            <path
               d="m 24.998 11 l -3.105 1.996 l -6.893 0 l 0 4.428 l -2 1.287 l 0 14.57 c 0 1.714 0 1.715 1.779 1.715 l 0.002 0 l 20.443 0 c 1.777 0 1.775 0 1.775 -1.715 l 0 -14.57 l -2 -1.287 l 0 -4.428 l -6.893 0 l -3.105 -1.996 z"
               transform="translate(-1,-1)"
               id="path33"
               style="stroke:#000000;stroke-opacity:0.1882353;stroke-width:0.4;stroke-miterlimit:4;stroke-dasharray:none" />
          </g>
        </g>
      </g>
    </g>
  </g>
  <g
     id="g35"
     style="stroke:#000000;stroke-opacity:0.1882353;stroke-width:0.4;stroke-miterlimit:4;stroke-dasharray:none">
    <g
       id="g37"
       style="stroke:#000000;stroke-opacity:0.1882353;stroke-width:0.4;stroke-miterlimit:4;stroke-dasharray:none">
      <!-- color: #474747 -->
      <g
         id="g39"
         style="stroke:#000000;stroke-opacity:0.1882353;stroke-width:0.4;stroke-miterlimit:4;stroke-dasharray:none">
        <path
           d="m 13.777 34 20.445 0 c 1.777 0 1.777 0 1.777 -1.715 l 0 -14.57 -12 -7.711 -12 7.711 0 14.57 c 0 1.715 0 1.715 1.781 1.715 m 0 0"
           style="fill:#aaa;fill-opacity:1;stroke:#000000;fill-rule:nonzero;stroke-opacity:0.1882353;stroke-width:0.4;stroke-miterlimit:4;stroke-dasharray:none"
           id="path41" />
        <path
           d="m 14,12 0,20 19.996,0 0,-20 M 14,12"
           style="fill:#f9f9f9;fill-opacity:1;stroke:#000000;fill-rule:nonzero;stroke-opacity:0.1882353;stroke-width:0.4;stroke-miterlimit:4;stroke-dasharray:none"
           id="path43" />
        <path
           d="m 13.777 34 20.445 0 c 1.777 0 1.777 0 1.777 -1.68 l 0 -14.316 -24 14.316 c 0 1.68 0 1.68 1.781 1.68 m -0.004 0"
           style="fill:#ccc;fill-opacity:1;stroke:#000000;fill-rule:nonzero;stroke-opacity:0.1882353;stroke-width:0.4;stroke-miterlimit:4;stroke-dasharray:none"
           id="path45" />
        <path
           d="m 34.22 34 -20.445 0 c -1.781 0 -1.781 0 -1.781 -1.68 l 0 -14.316 24 14.316 c 0 1.68 0 1.68 -1.77 1.68 m 0.004 0"
           style="fill:#dedede;fill-opacity:1;stroke:#000000;fill-rule:nonzero;stroke-opacity:0.1882353;stroke-width:0.4;stroke-miterlimit:4;stroke-dasharray:none"
           id="path47" />
      </g>
    </g>
  </g>
  <g
     id="g49">
    <path
       d="m 40.03 7.531 c 3.712 4.084 5.969 9.514 5.969 15.469 0 12.703 -10.297 23 -23 23 c -5.954 0 -11.384 -2.256 -15.469 -5.969 4.178 4.291 10.01 6.969 16.469 6.969 c 12.703 0 23 -10.298 23 -23 0 -6.462 -2.677 -12.291 -6.969 -16.469 z"
       style="opacity:0.1"
       id="path51" />
  </g>
</svg>

<?xml version="1.0" encoding="UTF-8" standalone="no"?>
<svg
   xmlns:dc="http://purl.org/dc/elements/1.1/"
   xmlns:cc="http://creativecommons.org/ns#"
   xmlns:rdf="http://www.w3.org/1999/02/22-rdf-syntax-ns#"
   xmlns:svg="http://www.w3.org/2000/svg"
   xmlns="http://www.w3.org/2000/svg"
   xmlns:sodipodi="http://sodipodi.sourceforge.net/DTD/sodipodi-0.dtd"
   xmlns:inkscape="http://www.inkscape.org/namespaces/inkscape"
   viewBox="0 0 48 48"
   id="svg2"
   version="1.1"
   inkscape:version="0.92.1 r"
   sodipodi:docname="mail_generic.svg"
   width="51.200001"
   height="51.200001">
  <metadata
     id="metadata55">
    <rdf:RDF>
      <cc:Work
         rdf:about="">
        <dc:format>image/svg+xml</dc:format>
        <dc:type
           rdf:resource="http://purl.org/dc/dcmitype/StillImage" />
      </cc:Work>
    </rdf:RDF>
  </metadata>
  <sodipodi:namedview
     pagecolor="#ffffff"
     bordercolor="#666666"
     borderopacity="1"
     objecttolerance="10"
     gridtolerance="10"
     guidetolerance="10"
     inkscape:pageopacity="0"
     inkscape:pageshadow="2"
     inkscape:window-width="1854"
     inkscape:window-height="1027"
     id="namedview53"
     showgrid="false"
     inkscape:zoom="4.9166667"
     inkscape:cx="-16.576271"
     inkscape:cy="24"
     inkscape:window-x="66"
     inkscape:window-y="24"
     inkscape:window-maximized="1"
     inkscape:current-layer="svg2" />
  <defs
     id="defs4">
    <linearGradient
       id="linearGradient3764"
       x1="1"
       x2="47"
       gradientUnits="userSpaceOnUse"
       gradientTransform="rotate(-90,23.999998,24)">
      <stop
         style="stop-color:#3d3d3d;stop-opacity:1"
         id="stop7" />
      <stop
         offset="1"
         style="stop-color:#474747;stop-opacity:1"
         id="stop9" />
    </linearGradient>
  </defs>
  <g
     id="g11">
    <path
       d="m 36.31,5 c 5.859,4.062 9.688,10.831 9.688,18.5 0,12.426 -10.07,22.5 -22.5,22.5 -7.669,0 -14.438,-3.828 -18.5,-9.688 1.037,1.822 2.306,3.499 3.781,4.969 4.085,3.712 9.514,5.969 15.469,5.969 12.703,0 23,-10.298 23,-23 0,-5.954 -2.256,-11.384 -5.969,-15.469 C 39.81,7.306 38.132,6.037 36.31,5 Z m 4.969,3.781 c 3.854,4.113 6.219,9.637 6.219,15.719 0,12.703 -10.297,23 -23,23 -6.081,0 -11.606,-2.364 -15.719,-6.219 4.16,4.144 9.883,6.719 16.219,6.719 12.703,0 23,-10.298 23,-23 0,-6.335 -2.575,-12.06 -6.719,-16.219 z"
       style="opacity:0.05"
       id="path13"
       inkscape:connector-curvature="0" />
    <path
       d="m 41.28,8.781 c 3.712,4.085 5.969,9.514 5.969,15.469 0,12.703 -10.297,23 -23,23 -5.954,0 -11.384,-2.256 -15.469,-5.969 4.113,3.854 9.637,6.219 15.719,6.219 12.703,0 23,-10.298 23,-23 0,-6.081 -2.364,-11.606 -6.219,-15.719 z"
       style="opacity:0.1"
       id="path15"
       inkscape:connector-curvature="0" />
    <path
       d="M 31.25,2.375 C 39.865,5.529 46,13.792 46,23.505 c 0,12.426 -10.07,22.5 -22.5,22.5 -9.708,0 -17.971,-6.135 -21.12,-14.75 a 23,23 0 0 0 44.875,-7 23,23 0 0 0 -16,-21.875 z"
       style="opacity:0.2"
       id="path17"
       inkscape:connector-curvature="0" />
  </g>
  <g
     id="g19"
     style="fill:#ececec;fill-opacity:1">
    <path
       d="M 24,1 C 36.703,1 47,11.297 47,24 47,36.703 36.703,47 24,47 11.297,47 1,36.703 1,24 1,11.297 11.297,1 24,1 Z"
       style="fill:#ececec;fill-opacity:1"
       id="path21"
       inkscape:connector-curvature="0" />
  </g>
  <g
     id="g23"
     style="stroke:#000000;stroke-width:0.40000001;stroke-miterlimit:4;stroke-dasharray:none;stroke-opacity:0.18823529">
    <g
       id="g25"
       style="stroke:#000000;stroke-width:0.40000001;stroke-miterlimit:4;stroke-dasharray:none;stroke-opacity:0.18823529">
      <g
         transform="translate(1,1)"
         id="g27"
         style="stroke:#000000;stroke-width:0.40000001;stroke-miterlimit:4;stroke-dasharray:none;stroke-opacity:0.18823529">
        <g
           style="opacity:0.1;stroke:#000000;stroke-width:0.40000001;stroke-miterlimit:4;stroke-dasharray:none;stroke-opacity:0.18823529"
           id="g29">
          <!-- color: #474747 -->
          <g
             id="g31"
             style="stroke:#000000;stroke-width:0.40000001;stroke-miterlimit:4;stroke-dasharray:none;stroke-opacity:0.18823529">
            <path
               d="m 24.998,11 -3.105,1.996 H 15 v 4.428 l -2,1.287 v 14.57 c 0,1.714 0,1.715 1.779,1.715 h 0.002 20.443 c 1.777,0 1.775,0 1.775,-1.715 v -14.57 l -2,-1.287 V 12.996 H 28.106 L 25.001,11 Z"
               transform="translate(-1,-1)"
               id="path33"
               style="stroke:#000000;stroke-width:0.40000001;stroke-miterlimit:4;stroke-dasharray:none;stroke-opacity:0.18823529"
               inkscape:connector-curvature="0" />
          </g>
        </g>
      </g>
    </g>
  </g>
  <g
     id="g35"
     style="stroke:#000000;stroke-width:0.40000001;stroke-miterlimit:4;stroke-dasharray:none;stroke-opacity:0.18823529">
    <g
       id="g37"
       style="stroke:#000000;stroke-width:0.40000001;stroke-miterlimit:4;stroke-dasharray:none;stroke-opacity:0.18823529">
      <!-- color: #474747 -->
      <g
         id="g39"
         style="stroke:#000000;stroke-width:0.40000001;stroke-miterlimit:4;stroke-dasharray:none;stroke-opacity:0.18823529">
        <path
           d="m 13.777,34 h 20.445 c 1.777,0 1.777,0 1.777,-1.715 v -14.57 l -12,-7.711 -12,7.711 v 14.57 c 0,1.715 0,1.715 1.781,1.715 m 0,0"
           style="fill:#aaaaaa;fill-opacity:1;fill-rule:nonzero;stroke:#000000;stroke-width:0.40000001;stroke-miterlimit:4;stroke-dasharray:none;stroke-opacity:0.18823529"
           id="path41"
           inkscape:connector-curvature="0" />
        <path
           d="M 14,12 V 32 H 33.996 V 12 M 14,12"
           style="fill:#f9f9f9;fill-opacity:1;fill-rule:nonzero;stroke:#000000;stroke-width:0.40000001;stroke-miterlimit:4;stroke-dasharray:none;stroke-opacity:0.18823529"
           id="path43"
           inkscape:connector-curvature="0" />
        <path
           d="m 13.777,34 h 20.445 c 1.777,0 1.777,0 1.777,-1.68 V 18.004 l -24,14.316 c 0,1.68 0,1.68 1.781,1.68 m -0.004,0"
           style="fill:#cccccc;fill-opacity:1;fill-rule:nonzero;stroke:#000000;stroke-width:0.40000001;stroke-miterlimit:4;stroke-dasharray:none;stroke-opacity:0.18823529"
           id="path45"
           inkscape:connector-curvature="0" />
        <path
           d="M 34.22,34 H 13.775 c -1.781,0 -1.781,0 -1.781,-1.68 V 18.004 l 24,14.316 c 0,1.68 0,1.68 -1.77,1.68 m 0.004,0"
           style="fill:#dedede;fill-opacity:1;fill-rule:nonzero;stroke:#000000;stroke-width:0.40000001;stroke-miterlimit:4;stroke-dasharray:none;stroke-opacity:0.18823529"
           id="path47"
           inkscape:connector-curvature="0" />
      </g>
    </g>
  </g>
  <g
     id="g49">
    <path
       d="m 40.03,7.531 c 3.712,4.084 5.969,9.514 5.969,15.469 0,12.703 -10.297,23 -23,23 C 17.045,46 11.615,43.744 7.53,40.031 11.708,44.322 17.54,47 23.999,47 c 12.703,0 23,-10.298 23,-23 0,-6.462 -2.677,-12.291 -6.969,-16.469 z"
       style="opacity:0.1"
       id="path51"
       inkscape:connector-curvature="0" />
  </g>
</svg>
